src/images/logoBeige.svg

<?xml version="1.0" encoding="UTF-8" standalone="no"?><!DOCTYPE svg PUBLIC "-//W3C//DTD SVG 1.1//EN" "http://www.w3.org/Graphics/SVG/1.1/DTD/svg11.dtd"><svg width="100%" height="100%" viewBox="0 0 120 120" version="1.1" xmlns="http://www.w3.org/2000/svg" xmlns:xlink="http://www.w3.org/1999/xlink" xml:space="preserve" style="fill-rule:evenodd;clip-rule:evenodd;stroke-linecap:round;stroke-linejoin:round;stroke-miterlimit:1.5;"><ellipse cx="64.785" cy="54.05" rx="52.185" ry="50.819" style="fill:#fff1e0;"/><g><path d="M56.386,59.016l3.415,-9.335l20.599,-0.303l3.469,10.062c-9.427,4.901 -18.589,4.78 -27.483,-0.424Z" style="stroke:#000;stroke-width:0.84px;"/><ellipse cx="69.923" cy="37.386" rx="17.462" ry="16.809" style="stroke:#000;stroke-width:0.93px;"/><g><path d="M85.185,28.186c0.031,-0.018 0.063,-0.027 0.094,-0.027c0.032,0 0.063,0.009 0.094,0.027l3.24,0l0.123,17.237l-3.301,-0.104c-0.051,0.05 -0.103,0.076 -0.156,0.076c-0.641,0 -1.161,-3.861 -1.161,-8.618c0,-4.241 0.413,-7.77 0.957,-8.486l0.11,-0.105Z" style="stroke:#000;stroke-width:0.76px;"/><ellipse cx="88.613" cy="36.774" rx="1.134" ry="8.587" style="stroke:#000;stroke-width:0.77px;"/></g><g><path d="M55.36,45.44c-0.03,0.019 -0.061,0.029 -0.093,0.03c-0.031,0.001 -0.063,-0.008 -0.094,-0.025l-3.239,0.082l-0.548,-17.228l3.303,0.02c0.049,-0.052 0.1,-0.079 0.153,-0.08c0.641,-0.017 1.256,3.831 1.374,8.586c0.104,4.239 -0.222,7.778 -0.748,8.507l-0.108,0.108Z" style="stroke:#000;stroke-width:0.9px;"/><path d="M51.934,45.527c-0.626,0.016 -1.229,-3.818 -1.346,-8.556c-0.116,-4.738 0.297,-8.598 0.922,-8.614c0.626,-0.015 1.229,3.818 1.345,8.556c0.117,4.738 -0.296,8.598 -0.921,8.614Z" style="stroke:#000;stroke-width:0.6px;"/></g><g><path d="M61.829,22.121c-0.017,-0.031 -0.026,-0.063 -0.026,-0.095c0,-0.032 0.009,-0.064 0.027,-0.095l0.009,-3.286l16.356,-0.076l-0.109,3.347c0.048,0.052 0.073,0.104 0.072,0.158c-0.001,0.65 -3.667,1.167 -8.181,1.154c-4.023,-0.012 -7.371,-0.441 -8.049,-0.995l-0.099,-0.112Z" style="stroke:#000;stroke-width:0.62px;"/><path d="M61.839,18.645c0.002,-0.635 3.655,-1.14 8.152,-1.126c4.497,0.013 8.146,0.539 8.145,1.174c-0.002,0.634 -3.655,1.139 -8.152,1.126c-4.497,-0.014 -8.147,-0.54 -8.145,-1.174Z" style="stroke:#000;stroke-width:0.5px;"/></g><ellipse cx="70.048" cy="37.822" rx="9.019" ry="9.174" style="stroke:#000;stroke-width:0.87px;"/><path d="M56.398,59.213l-13.275,5.953c14.765,21.064 36.645,21.447 53.9,1.015l-12.474,-6.765" style="stroke:#000;stroke-width:0.79px;"/></g><g><path d="M51.249,60.867l3.416,-9.335l20.599,-0.304l3.469,10.063c-9.427,4.901 -18.589,4.779 -27.484,-0.424Z" style="fill:#fff1e0;stroke:#000;stroke-width:0.84px;"/><ellipse cx="64.787" cy="39.236" rx="17.462" ry="16.809" style="fill:#fff1e0;stroke:#000;stroke-width:0.93px;"/><g><path d="M80.049,30.037c0.031,-0.018 0.062,-0.028 0.094,-0.028c0.031,0 0.063,0.01 0.094,0.028l3.239,0l0.123,17.237l-3.3,-0.105c-0.051,0.051 -0.103,0.077 -0.156,0.077c-0.641,0 -1.161,-3.862 -1.161,-8.618c0,-4.241 0.413,-7.77 0.957,-8.486l0.11,-0.105Z" style="fill:#fff1e0;stroke:#000;stroke-width:0.76px;"/><ellipse cx="83.477" cy="38.624" rx="1.134" ry="8.587" style="fill:#fff1e0;stroke:#000;stroke-width:0.77px;"/></g><g><path d="M50.224,47.291c-0.031,0.019 -0.062,0.029 -0.093,0.03c-0.032,0 -0.063,-0.008 -0.095,-0.025l-3.238,0.082l-0.548,-17.229l3.302,0.021c0.05,-0.052 0.101,-0.079 0.154,-0.081c0.641,-0.016 1.256,3.831 1.373,8.586c0.105,4.24 -0.222,7.778 -0.748,8.508l-0.107,0.108Z" style="fill:#fff1e0;stroke:#000;stroke-width:0.9px;"/><path d="M46.797,47.377c-0.625,0.016 -1.228,-3.818 -1.345,-8.556c-0.117,-4.738 0.296,-8.597 0.922,-8.613c0.625,-0.016 1.228,3.818 1.345,8.556c0.117,4.738 -0.296,8.597 -0.922,8.613Z" style="fill:#fff1e0;stroke:#000;stroke-width:0.6px;"/></g><g><path d="M56.693,23.972c-0.018,-0.032 -0.026,-0.063 -0.026,-0.096c0,-0.031 0.009,-0.063 0.026,-0.094l0.009,-3.286l16.356,-0.077l-0.108,3.347c0.048,0.052 0.072,0.105 0.072,0.159c-0.002,0.65 -3.668,1.167 -8.181,1.153c-4.024,-0.012 -7.371,-0.441 -8.049,-0.994l-0.099,-0.112Z" style="fill:#fff1e0;stroke:#000;stroke-width:0.62px;"/><path d="M56.703,20.495c0.002,-0.634 3.654,-1.139 8.151,-1.126c4.497,0.014 8.147,0.54 8.145,1.174c-0.002,0.635 -3.654,1.139 -8.151,1.126c-4.497,-0.013 -8.147,-0.539 -8.145,-1.174Z" style="fill:#fff1e0;stroke:#000;stroke-width:0.5px;"/></g><ellipse cx="64.911" cy="39.673" rx="9.019" ry="9.174" style="fill:#fff1e0;stroke:#000;stroke-width:0.87px;"/><path d="M51.262,61.063l-13.275,5.954c14.765,21.064 36.645,21.447 53.9,1.015l-12.474,-6.766" style="fill:#fff1e0;stroke:#000;stroke-width:0.79px;"/></g></svg>

<?xml version="1.0" encoding="UTF-8" standalone="no"?>
<!DOCTYPE svg PUBLIC "-//W3C//DTD SVG 1.1//EN" "http://www.w3.org/Graphics/SVG/1.1/DTD/svg11.dtd">
<svg width="100%" height="100%" viewBox="0 0 120 120" version="1.1" xmlns="http://www.w3.org/2000/svg" xmlns:xlink="http://www.w3.org/1999/xlink" xml:space="preserve" xmlns:serif="http://www.serif.com/" style="fill-rule:evenodd;clip-rule:evenodd;stroke-linejoin:round;stroke-miterlimit:2;">
    <g transform="matrix(1,0,0,1,-4.43411,5.38429)">
        <ellipse cx="64.785" cy="54.05" rx="52.185" ry="50.819" style="fill:white;stroke:black;stroke-width:0.7px;"/>
    </g>
    <g transform="matrix(1,0,0,1,-2.27027,4.86486)">
        <path d="M56.386,59.016L59.801,49.681L80.4,49.378L83.869,59.44C74.442,64.341 65.28,64.22 56.386,59.016Z" style="stroke:black;stroke-width:0.84px;stroke-linecap:round;stroke-miterlimit:1.5;"/>
        <ellipse cx="69.923" cy="37.386" rx="17.462" ry="16.809" style="stroke:black;stroke-width:0.93px;stroke-linecap:round;stroke-miterlimit:1.5;"/>
        <g>
            <path d="M85.185,28.186C85.216,28.168 85.248,28.159 85.279,28.159C85.311,28.159 85.342,28.168 85.373,28.186L88.613,28.186L88.736,45.423L85.435,45.319C85.384,45.369 85.332,45.395 85.279,45.395C84.638,45.395 84.118,41.534 84.118,36.777C84.118,32.536 84.531,29.007 85.075,28.291L85.185,28.186Z" style="stroke:black;stroke-width:0.76px;stroke-linecap:round;stroke-miterlimit:1.5;"/>
            <ellipse cx="88.613" cy="36.774" rx="1.134" ry="8.587" style="stroke:black;stroke-width:0.77px;stroke-linecap:round;stroke-miterlimit:1.5;"/>
        </g>
        <g>
            <path d="M55.36,45.44C55.33,45.459 55.299,45.469 55.267,45.47C55.236,45.471 55.204,45.462 55.173,45.445L51.934,45.527L51.386,28.299L54.689,28.319C54.738,28.267 54.789,28.24 54.842,28.239C55.483,28.222 56.098,32.07 56.216,36.825C56.32,41.064 55.994,44.603 55.468,45.332L55.36,45.44Z" style="stroke:black;stroke-width:0.9px;stroke-linecap:round;stroke-miterlimit:1.5;"/>
            <path d="M51.934,45.527C51.308,45.543 50.705,41.709 50.588,36.971C50.472,32.233 50.885,28.373 51.51,28.357C52.136,28.342 52.739,32.175 52.855,36.913C52.972,41.651 52.559,45.511 51.934,45.527Z" style="stroke:black;stroke-width:0.6px;stroke-linecap:round;stroke-miterlimit:1.5;"/>
        </g>
        <g>
            <path d="M61.829,22.121C61.812,22.09 61.803,22.058 61.803,22.026C61.803,21.994 61.812,21.962 61.83,21.931L61.839,18.645L78.195,18.569L78.086,21.916C78.134,21.968 78.159,22.02 78.158,22.074C78.157,22.724 74.491,23.241 69.977,23.228C65.954,23.216 62.606,22.787 61.928,22.233L61.829,22.121Z" style="stroke:black;stroke-width:0.62px;stroke-linecap:round;stroke-miterlimit:1.5;"/>
            <path d="M61.839,18.645C61.841,18.01 65.494,17.505 69.991,17.519C74.488,17.532 78.137,18.058 78.136,18.693C78.134,19.327 74.481,19.832 69.984,19.819C65.487,19.805 61.837,19.279 61.839,18.645Z" style="stroke:black;stroke-width:0.5px;stroke-linecap:round;stroke-miterlimit:1.5;"/>
        </g>
        <ellipse cx="70.048" cy="37.822" rx="9.019" ry="9.174" style="stroke:black;stroke-width:0.87px;stroke-linecap:round;stroke-miterlimit:1.5;"/>
        <path d="M56.398,59.213L43.123,65.166C57.888,86.23 79.768,86.613 97.023,66.181L84.549,59.416" style="stroke:black;stroke-width:0.79px;stroke-linecap:round;stroke-miterlimit:1.5;"/>
    </g>
    <g>
        <g transform="matrix(1,0,0,1,-4.43411,5.38429)">
            <path d="M51.249,60.867L54.001,52.777C60.851,57.415 69.072,57.079 76.011,51.975L78.733,61.291C69.306,66.192 60.144,66.07 51.249,60.867Z" style="fill:white;stroke:rgb(16,43,77);stroke-width:0.84px;stroke-linecap:round;stroke-miterlimit:1.5;"/>
        </g>
        <g transform="matrix(1,0,0,1,-4.43411,5.38429)">
            <ellipse cx="64.787" cy="39.236" rx="17.462" ry="16.809" style="fill:white;stroke:rgb(16,43,77);stroke-width:0.84px;stroke-linecap:round;stroke-miterlimit:1.5;"/>
        </g>
        <g transform="matrix(1,0,0,1,-4.43411,5.38429)">
            <path d="M80.049,30.037C80.08,30.019 80.111,30.009 80.143,30.009C80.174,30.009 80.206,30.019 80.237,30.037L83.476,30.037L83.599,47.274L80.299,47.169C80.248,47.22 80.196,47.246 80.143,47.246C79.502,47.246 78.982,43.384 78.982,38.628C78.982,34.387 79.395,30.858 79.939,30.142L80.049,30.037Z" style="fill:white;stroke:rgb(16,43,77);stroke-width:0.84px;stroke-linecap:round;stroke-miterlimit:1.5;"/>
            <ellipse cx="83.477" cy="38.624" rx="1.134" ry="8.587" style="fill:white;stroke:rgb(16,43,77);stroke-width:0.84px;stroke-linecap:round;stroke-miterlimit:1.5;"/>
        </g>
        <g transform="matrix(1,0,0,1,-4.43411,5.38429)">
            <path d="M50.224,47.291C50.193,47.31 50.162,47.32 50.131,47.321C50.099,47.321 50.068,47.313 50.036,47.296L46.798,47.378L46.25,30.149L49.552,30.17C49.602,30.118 49.653,30.091 49.706,30.089C50.347,30.073 50.962,33.92 51.079,38.675C51.184,42.915 50.857,46.453 50.331,47.183L50.224,47.291Z" style="fill:white;stroke:rgb(16,43,77);stroke-width:0.84px;stroke-linecap:round;stroke-miterlimit:1.5;"/>
            <path d="M46.797,47.377C46.172,47.393 45.569,43.559 45.452,38.821C45.335,34.083 45.748,30.224 46.374,30.208C46.999,30.192 47.602,34.026 47.719,38.764C47.836,43.502 47.423,47.361 46.797,47.377Z" style="fill:white;stroke:rgb(16,43,77);stroke-width:0.84px;stroke-linecap:round;stroke-miterlimit:1.5;"/>
        </g>
        <g transform="matrix(1,0,0,1,-4.43411,5.38429)">
            <path d="M56.693,23.972C56.675,23.94 56.667,23.909 56.667,23.876C56.667,23.845 56.676,23.813 56.693,23.782L56.702,20.496L73.058,20.419L72.95,23.766C72.998,23.818 73.022,23.871 73.022,23.925C73.02,24.575 69.354,25.092 64.841,25.078C60.817,25.066 57.47,24.637 56.792,24.084L56.693,23.972Z" style="fill:white;stroke:rgb(16,43,77);stroke-width:0.84px;stroke-linecap:round;stroke-miterlimit:1.5;"/>
            <path d="M56.703,20.495C56.705,19.861 60.357,19.356 64.854,19.369C69.351,19.383 73.001,19.909 72.999,20.543C72.997,21.178 69.345,21.682 64.848,21.669C60.351,21.656 56.701,21.13 56.703,20.495Z" style="fill:white;stroke:rgb(16,43,77);stroke-width:0.84px;stroke-linecap:round;stroke-miterlimit:1.5;"/>
        </g>
        <g transform="matrix(1,0,0,1,-4.43411,5.38429)">
            <ellipse cx="64.911" cy="39.673" rx="9.019" ry="9.174" style="fill:white;stroke:rgb(16,43,77);stroke-width:0.84px;stroke-linecap:round;stroke-miterlimit:1.5;"/>
        </g>
        <g transform="matrix(1,0,0,1,-4.43411,5.38429)">
            <path d="M51.262,61.063L37.987,67.017C52.752,88.081 74.632,88.464 91.887,68.032L79.413,61.266" style="fill:white;stroke:rgb(16,43,77);stroke-width:0.84px;stroke-linecap:round;stroke-miterlimit:1.5;"/>
        </g>
    </g>
</svg>
